eyedropper-off.svg

<svg fill="currentColor" viewBox="0 0 24 24"><path d="m21 7.24-1.92 1.92-4.24-4.24L16.76 3c1.17-1.17 3.07-1.17 4.24 0s1.17 3.07 0 4.24M10.94 8.82l1.42 1.42.64-.64 1.4 1.4-.64.64 1.42 1.42.63-.63 1.41 1.42 2.13-2.13-7.07-7.07-2.13 2.13 1.42 1.41zm8.92 11.47-1.28 1.28-5.95-5.96-4.53 4.53L3.5 22 2 20.5l1.86-4.6 4.53-4.53-6.53-6.52 1.28-1.28zm-8.65-6.09-1.4-1.41-4.25 4.24L4.5 19.5l2.47-1.06z"/></svg>

<svg  viewBox="0 0 24 24" fill="currentColor"><path  d="M21 7.24L19.08 9.16L14.84 4.92L16.76 3C17.93 1.83 19.83 1.83 21 3S22.17 6.07 21 7.24M10.94 8.82L12.36 10.24L13 9.6L14.4 11L13.76 11.64L15.18 13.06L15.81 12.43L17.22 13.85L19.35 11.72L12.28 4.65L10.15 6.78L11.57 8.19L10.94 8.82M19.86 20.29L18.58 21.57L12.63 15.61L8.1 20.14L3.5 22L2 20.5L3.86 15.9L8.39 11.37L1.86 4.85L3.14 3.57L19.86 20.29M11.21 14.2L9.81 12.79L5.56 17.03L4.5 19.5L6.97 18.44L11.21 14.2Z"/></svg>
